symbols/web/ios_share/materialsymbolsrounded/ios_share_wght600fill1_24px.svg

<svg xmlns="http://www.w3.org/2000/svg" height="24" width="24"><path d="M12 16.5q-.55 0-.938-.387-.387-.388-.387-.938v-9.55l-.7.675q-.35.375-.9.375t-.925-.4q-.375-.375-.375-.938 0-.562.375-.912L11.075 1.5q.175-.2.425-.288.25-.087.5-.087t.5.087q.25.088.425.288l2.95 2.925q.4.425.4.975t-.425.9q-.375.375-.925.375T14 6.3l-.675-.675v9.55q0 .55-.387.938-.388.387-.938.387Zm-5.6 6.95q-1.1 0-1.875-.775Q3.75 21.9 3.75 20.8V11q0-1.1.775-1.875Q5.3 8.35 6.4 8.35h1.125q.55 0 .85.388.3.387.3.937t-.3.938q-.3.387-.85.387H6.4v9.8h11.2V11h-1.125q-.55 0-.85-.387-.3-.388-.3-.938 0-.55.3-.937.3-.388.85-.388H17.6q1.1 0 1.875.775.775.775.775 1.875v9.8q0 1.1-.775 1.875-.775.775-1.875.775Z"/></svg>

<svg xmlns="http://www.w3.org/2000/svg" height="24" width="24"><path d="M12 16.5Q11.45 16.5 11.062 16.113Q10.675 15.725 10.675 15.175V5.625L9.975 6.3Q9.625 6.675 9.075 6.675Q8.525 6.675 8.15 6.275Q7.775 5.9 7.775 5.337Q7.775 4.775 8.15 4.425L11.075 1.5Q11.25 1.3 11.5 1.212Q11.75 1.125 12 1.125Q12.25 1.125 12.5 1.212Q12.75 1.3 12.925 1.5L15.875 4.425Q16.275 4.85 16.275 5.4Q16.275 5.95 15.85 6.3Q15.475 6.675 14.925 6.675Q14.375 6.675 14 6.3L13.325 5.625V15.175Q13.325 15.725 12.938 16.113Q12.55 16.5 12 16.5ZM6.4 23.45Q5.3 23.45 4.525 22.675Q3.75 21.9 3.75 20.8V11Q3.75 9.9 4.525 9.125Q5.3 8.35 6.4 8.35H7.525Q8.075 8.35 8.375 8.738Q8.675 9.125 8.675 9.675Q8.675 10.225 8.375 10.613Q8.075 11 7.525 11H6.4Q6.4 11 6.4 11Q6.4 11 6.4 11V20.8Q6.4 20.8 6.4 20.8Q6.4 20.8 6.4 20.8H17.6Q17.6 20.8 17.6 20.8Q17.6 20.8 17.6 20.8V11Q17.6 11 17.6 11Q17.6 11 17.6 11H16.475Q15.925 11 15.625 10.613Q15.325 10.225 15.325 9.675Q15.325 9.125 15.625 8.738Q15.925 8.35 16.475 8.35H17.6Q18.7 8.35 19.475 9.125Q20.25 9.9 20.25 11V20.8Q20.25 21.9 19.475 22.675Q18.7 23.45 17.6 23.45Z"/></svg>
